packages/IcoMoon/src/VolumeMute2Icon/index.svg

<svg version="1.1" xmlns="http://www.w3.org/2000/svg" width="16" height="16" viewBox="0 0 16 16">
<path d="M15 9.674v1.326h-1.326l-1.674-1.674-1.674 1.674h-1.326v-1.326l1.674-1.674-1.674-1.674v-1.326h1.326l1.674 1.674 1.674-1.674h1.326v1.326l-1.674 1.674 1.674 1.674z"></path>
<path d="M6.5 15c-0.13 0-0.258-0.051-0.354-0.146l-3.854-3.854h-1.793c-0.276 0-0.5-0.224-0.5-0.5v-5c0-0.276 0.224-0.5 0.5-0.5h1.793l3.854-3.854c0.143-0.143 0.358-0.186 0.545-0.108s0.309 0.26 0.309 0.462v13c0 0.202-0.122 0.385-0.309 0.462-0.062 0.026-0.127 0.038-0.191 0.038z"></path>
</svg>

<svg xmlns="http://www.w3.org/2000/svg" viewBox="0 0 16 16">
  <path d="M15 9.674V11h-1.326L12 9.326 10.326 11H9V9.674L10.674 8 9 6.326V5h1.326L12 6.674 13.674 5H15v1.326L13.326 8 15 9.674zM6.5 15a.504.504 0 01-.354-.146L2.292 11H.499a.5.5 0 01-.5-.5v-5a.5.5 0 01.5-.5h1.793l3.854-3.854A.499.499 0 017 1.5v13a.5.5 0 01-.5.5z"/>
</svg>
